public/avatar/item1/11.svg

<svg xmlns:xlink="http://www.w3.org/1999/xlink" height="65.4" width="80.15" xmlns="http://www.w3.org/2000/svg"><use height="3.25" transform="translate(24.8 30.5)" width="13.35" xlink:href="#a"/><defs><g id="a" fill-rule="evenodd"><path d="M-6.8 19.95q.1-3.25 6.6-3.25 6.75 0 6.75 2.9Q6.5 18.3.9 18.15q-.7-.45-1-.45-.55.45-1.35.45-5.25.15-5.35 1.8" transform="translate(6.8 -16.7)"/><path d="M.3 17.05q2.1 0 3.8.6L1 17.7l-.7-.65m-.75 0-.7.65-3.15-.05 3.85-.6" fill="#77787a" transform="translate(6.8 -16.7)"/></g></defs></svg>

<?xml version="1.0" encoding="UTF-8" standalone="no"?>
<svg xmlns:xlink="http://www.w3.org/1999/xlink" height="65.4px" width="80.15px" xmlns="http://www.w3.org/2000/svg">
  <g transform="matrix(1.0, 0.0, 0.0, 1.0, 31.6, 13.8)">
    <use height="3.25" transform="matrix(1.0, 0.0, 0.0, 1.0, -6.8, 16.7)" width="13.35" xlink:href="#shape0"/>
  </g>
  <defs>
    <g id="shape0" transform="matrix(1.0, 0.0, 0.0, 1.0, 6.8, -16.7)">
      <path d="M-6.8 19.95 Q-6.7 16.7 -0.2 16.7 6.55 16.7 6.55 19.6 6.5 18.3 0.9 18.15 0.2 17.7 -0.1 17.7 -0.65 18.15 -1.45 18.15 -6.7 18.3 -6.8 19.95" fill="#000000" fill-rule="evenodd" stroke="none"/>
      <path d="M0.3 17.05 Q2.4 17.05 4.1 17.65 L1.0 17.7 0.3 17.05" fill="#77787a" fill-rule="evenodd" stroke="none"/>
      <path d="M-0.45 17.05 L-1.15 17.7 -4.3 17.65 -0.45 17.05" fill="#77787a" fill-rule="evenodd" stroke="none"/>
    </g>
  </defs>
</svg>
